X:1
T:Title
%%score ( 1 2 ) { 3 | 4 }
L:1/8
Q:1/4=100
M:4/4
K:G
V:1 treble nm="Grand Piano, Soprano"
V:2 treble 
V:3 treble nm="Choir Pad, Castillo, 87.87 D"
V:4 bass 
V:1
 [GB]3 [GB] [G_B][G=B][Gc][GB] | [GB]4 [FA]4 | [FA]3 [FA] [FA][FA]G[GB] | [FA]6 z2 | %4
w: By~Owen~Foulkes~Pugh * * * * *||||
 [GB]3 [GB] [G_B][G=B][Gc][GB] | [Gd]4 [Gc]4 | [GB]3 [GB] [GB][Gc][GB][FA] | G6 z2 | %8
w: ||||
 [Gd]3 [GB] [GB][GB][GB][GB] | [Fd]2 [Ac]2 F2 F2 | [Fc]3 [FA] [FA][FA][Gd][Fc] | G4- [Gd]2 z2 | %12
w: ||||
 [Gd]3 [Gd] [G^c][Gd][Ge][GB] | d4 c4 | [GB]3 [GB] [GB][Gc][GB][FA] | G8 |] %16
w: ||||
V:2
 x8 | x8 | x8 | x8 | x8 | x8 | x8 | x8 | x8 | x8 | x8 | B4 z4 | x8 | .G2 .G2 .G2 .G2 | x8 | x8 |] %16
V:3
 D3 D ^CDED | D4 D4 | D3 D DDB,D | D6 z2 | D3 D ^CDED | B,4 E4 | D3 D DEDC | B,6 z2 | B,3 D DDDD | %9
 D2 D2 D2 D2 | D3 D DDDD | D4 B,2 z2 | B,3 B, _B,=B,C[K:treble]D | .B,2 .D2 .E2 .E2 | D3 D DEDC | %15
 B,8 |] %16
V:4
 G,3 G, G,G,G,G, | D,4 D,4 | D,3 D, D,D,G,G, | D,6 z2 | G,3 G, G,G,G,G, | G,4 C,4 | %6
 D,3 D, D,D,D,D, | G,6 z2 | G,3 G, G,G,G,G, | D,2 F,2 A,2 D,2 | D,3 F, A,CB,A, | G,6 z2 | %12
 G,3 G, G,G,G,G, | .D,2 .B,,2 .C,2 .C,2 | D,3 D, D,D,D,D, | [G,,G,]8 |] %16

